X: 11415
T: East Winds
R: reel
M: 4/4
K: Eminor
B,E (3FED EGBe|cABc BGEG|FB,DE FGAB|cegf efgb|
af (3gfe dBAc|BGEG FDB,A,|B,E (3FED EGBe|cAFD E4:|
|:ef (3gfe aABc|edBA GEDF|EGBe FAdf|GBdg agef|
gb (3agf gedB|AcBA GEDF|B,E (3FED EGBe|cAFD E4:|

